X:8
T:Marsascala
C:Andy Hornby 1997
Q:1/4=180
I:abc2nwc
M:4/4
L:1/8
K:G
Bd|eAAG A2EA|GAEA GAcd|eAAB cAeA|BGdG edBd|
eAAG A2EA|GAEA GAcd|e2ag efge|dBGB A2:|
|:Bd|eaag abgb|a2ab ageg|agab agef|g2af gedB|
eaag abgb|a2ba agef|g2af gedB|GABG A2:|
%%vskip 2.5cm
